X:1
T:Pressly, 88.68.86
T:Pressly, 88.68.86
T:Charles Hutchinson Gabriel, 1901
T:Public Domain Courtesy of the Cyber Hymnal™
C:Charles Hutchinson Gabriel, 1901
Z:Public Domain
Z:Courtesy of the Cyber Hymnal™
%%score ( 1 2 ) ( 3 4 )
L:1/8
Q:1/4=115
M:4/4
K:F
V:1 treble 
V:2 treble 
V:3 bass 
V:4 bass 
V:1
 F2 | [FA]3 [FA] [FA]F[Fd][Fc] | [Fc]6 [FA]2 | [Ec]3 [GB] [EG][EG][FA][GB] | [FA]6 [Fc]2 | %5
 [Fd]3 [Fd] [Ec]2 [F=B]2 | [Ec]6 [Ec]2 | [Fc]3 [FA] [^Fd][Ac][GB][FA] | [GB]6 [GB]2 | %9
 [GB]3 G [Ec][GB][FA][EG] | [FA]6 F2 | [DG]3 [DG] [CF]2 [CE]2 | [CF]6 |] %13
V:2
 F2 | x5 F x2 | x8 | x8 | x8 | x8 | x8 | x8 | x8 | x3 G x4 | x6 F2 | x8 | x6 |] %13
V:3
 [F,A,]2 | [F,C]3 [F,C] [F,C][F,A,][F,B,][F,A,] | [F,A,]6 [F,C]2 | %3
 [C,C]3 [C,C] [C,C][C,C][C,C][C,C] | [F,C]6 [F,A,]2 | [D,A,]3 [D,A,] G,2 G,2 | [C,G,]6 [C,B,]2 | %7
 [F,A,]3 [F,C] [F,C][D,D][D,D][D,D] | [G,D]6 [F,_D]2 | [E,C]3 [E,C] [C,C][C,C][C,C][C,C] | %10
 [F,C]6 [A,,C]2 | [B,,B,]3 [B,,B,] [C,A,]2 [C,G,]2 | [F,A,]6 |] %13
V:4
 x2 | x8 | x8 | x8 | x8 | x4 G,2 G,2 | x8 | x8 | x8 | x8 | x8 | x8 | x6 |] %13

